Product design LandingPage/twitter.svg

<svg xmlns="http://www.w3.org/2000/svg" width="22" height="18" viewBox="0 0 22 18">
  <path id="twitter" d="M508,343.157a9.329,9.329,0,0,1-2.6.707,4.562,4.562,0,0,0,1.991-2.51,9,9,0,0,1-2.871,1.106,4.5,4.5,0,0,0-7.43,1.217,4.554,4.554,0,0,0-.27,2.918,12.787,12.787,0,0,1-9.3-4.743,4.613,4.613,0,0,0-.6,2.288,4.549,4.549,0,0,0,.53,2.138,4.5,4.5,0,0,0,1.472,1.632,4.44,4.44,0,0,1-2.046-.563v.055a4.527,4.527,0,0,0,3.63,4.422,4.316,4.316,0,0,1-1.21.188,5.344,5.344,0,0,1-.847-.077,4.526,4.526,0,0,0,4.213,3.14,9.01,9.01,0,0,1-5.566,1.945,8.6,8.6,0,0,1-1.1-.066,12.836,12.836,0,0,0,16.055-1.7,12.849,12.849,0,0,0,3.745-9.173V345.5a9.307,9.307,0,0,0,2.2-2.343Z" transform="translate(-486 -341)" fill="#fff"/>
</svg>

<svg width="1000" height="428" viewBox="0 0 1000 428" fill="none" xmlns="http://www.w3.org/2000/svg">

            <path d="M508 343.157C507.173 343.517 506.299 343.755 505.404 343.864C506.348 343.297 507.055 342.406 507.395 341.354C506.508 341.885 505.537 342.259 504.524 342.46C503.847 341.722 502.945 341.231 501.961 341.064C500.976 340.896 499.964 341.062 499.083 341.535C498.202 342.008 497.503 342.761 497.094 343.677C496.685 344.593 496.59 345.619 496.824 346.595C495.03 346.504 493.276 346.034 491.675 345.217C490.073 344.4 488.661 343.253 487.529 341.852C487.132 342.549 486.923 343.338 486.924 344.14C486.923 344.886 487.105 345.62 487.454 346.278C487.803 346.936 488.309 347.497 488.926 347.91C488.209 347.891 487.507 347.697 486.88 347.347V347.402C486.885 348.447 487.25 349.457 487.911 350.263C488.572 351.069 489.491 351.62 490.51 351.824C490.118 351.944 489.71 352.007 489.3 352.012C489.016 352.009 488.733 351.983 488.453 351.935C488.743 352.833 489.305 353.619 490.06 354.181C490.815 354.744 491.726 355.056 492.666 355.075C491.079 356.33 489.119 357.015 487.1 357.02C486.732 357.022 486.365 356.999 486 356.954C488.062 358.292 490.465 359.002 492.919 358.999C494.613 359.017 496.293 358.695 497.861 358.053C499.43 357.411 500.856 356.461 502.055 355.259C503.254 354.056 504.203 352.626 504.846 351.051C505.489 349.476 505.813 347.789 505.8 346.086C505.8 345.898 505.8 345.699 505.8 345.5C506.663 344.853 507.408 344.06 508 343.157V343.157Z" fill="black"/>


</svg>
